X:1
T:Title
%%score { ( 1 3 ) | ( 2 4 ) }
L:1/8
Q:1/4=100
M:4/4
K:Ab
V:1 treble nm="Grand Piano"
V:3 treble 
V:2 bass 
V:4 bass 
V:1
 [Ec]>[=D_c] [E=c]>[Fd] B>=A B>c | [CA]4 [CE]4 | [Ec]>[=D_c] [E=c]>[Fd] B>A B>c | %3
w: E.~J.~Bond * * * * * * *|||
 [CA]6 [_GA]>[GA] | [Fd]>[Fd] [Fd]>[Fd] [Ge]2 [Fd]2 | [Fd]2 [Ec]6 | %6
w: |||
 [=Dc]>[DB] [DA]>[DG] [DF]>[DF] [DG]>[DA] |[M:9/8] z3 z3 c3 |[M:4/4] [CA]>[CG] [CA]>C [CE]2 [CA]2 | %9
w: |||
 [DG]4 [GB]4 | d>c B>=A B>G F>E | c6 c2 | e>e e>e f2 e2 |[M:5/4] [_Ge]2 [Fd]6 [FA][=EB] | %14
w: |||||
[M:4/4] c>c c>d c2 B2 | [CA]6 z2 |] %16
w: ||
V:2
 [A,,A,]>[A,,A,] [A,,A,]>[A,,A,] [E,G,D]>[E,_G,C] [E,=G,D]>[E,G,E] | [A,,A,]4 [A,,A,]4 | %2
 [A,,A,]>[A,,A,] [A,,A,]>[A,,A,] [E,G,D]>[E,_G,C] [E,=G,D]>[E,G,E] | [A,,A,]6 [A,C]>[A,C] | %4
 [D,A,]>[D,A,] [D,A,]>[D,A,] [D,A,]2 [D,A,]2 | [A,,A,]2 [A,,A,]6 | %6
 [B,,A,]>[B,,A,] [B,,F,]>[B,,F,] [B,,B,]>[B,,B,] [B,,A,]>[B,,A,] | %7
[M:9/8] [E,G,D]6 [A,E]2- [A,E]/-<[E,G,A,DE]/ | %8
[M:4/4] [A,,A,]>[A,,A,] [A,,A,]>[A,,A,] [A,,A,]2 [A,,A,]2 | [E,B,]4 [E,E]4 | %10
 [E,B,E]>[E,A,E] [E,G,E]>[E,_G,E] [E,=G,E]>[E,B,E] [E,A,D]>[E,G,D] | [A,E]6 [A,CE]2 | %12
 [A,CA]>[A,CA] [A,CA]>[A,CA] [A,DA]2 [A,C_G]2 |[M:5/4][K:bass] [D,D]2 [D,A,]6 [D,A,][D,A,] | %14
[M:4/4] [E,A,E]>[E,A,E] [E,A,E]>[E,B,F] [E,A,E]2 [E,G,D]2 | [A,,A,]6 z2 |] %16
V:3
 x8 | x8 | x8 | x8 | x8 | x8 | x8 |[M:9/8] B6 z z z/4 B3/4 |[M:4/4] x8 | x8 | x8 | x8 | x8 | %13
[M:5/4] x10 |[M:4/4] x8 | x8 |] %16
V:4
 x8 | x8 | x8 | x8 | x8 | x8 | x8 |[M:9/8] z3 z3 E,2- E,/4 z/4 z/ |[M:4/4] x8 | x8 | x8 | x8 | x8 | %13
[M:5/4][K:bass] x10 |[M:4/4] x8 | x8 |] %16

